!!!!SEGMENT: Distler_Jahrkreis_07_Christum-wir-sollen-loben-schon.krn
!!!COM: Distler, Hugo
!!!CDT: 1908-1942
!!!OPR@@DE: Der Jahrkreis
!!!OPR@EN: The Year Cycle
!!!OTL@@DE: Christum wir sollen loben schon
!!!OTL@EN: We should praise Christ beautifully
!!!OPS: 5
!!!ONM: 7
**kern	**text	**kern	**text	**kern	**text
*part3	*part3	*part2	*part2	*part1	*part1
*staff3	*staff3	*staff2	*staff2	*staff1	*staff1
*Ibass	*	*Ialto	*	*Isoprn	*
*clefF4	*	*clefG2	*	*clefG2	*
*k[]	*	*k[]	*	*k[]	*
*MM120	*	*MM120	*	*MM120	*
*M4/4	*	*M4/4	*	*M4/4	*
=1	=1	=1	=1	=1	=1
2G	Chris-	2A	Chris-	2d	Chris-
4F	tum	4A	tum	4d	tum
([4F	wir	4c	wir	4f	wir
=2	=2	=2	=2	=2	=2
*M6/4	*	*M6/4	*	*M6/4	*
8FL]	.	8d	sol-	(4g	sol-
8EJ)	.	8e	len	.	.
(2D	sol-	(4f	lo-	4.a	.
.	.	4.e	.	.	.
.	.	.	.	8g	.
4C	.	.	.	4f	.
.	.	8d	.	.	.
4D)	.	4c	.	4d)	.
4E	len	[4A	.	4c	len
=3	=3	=3	=3	=3	=3
(1A	lo-	8AL]	.	(4.e	lo-
.	.	8A	.	.	.
.	.	8B	.	.	.
.	.	8cJ	.	8f	.
.	.	2d	.	4g	.
.	.	.	.	2f)	.
4G)	.	4c)	.	.	.
4A	ben	4B	ben	4e	ben
=4	=4	=4	=4	=4	=4
2A	schon,	2c,	schon,	2e,	schon,
1r	.	4e	der	4g	der
.	.	2f	rei-	(4a	rei-
.	.	.	.	4cc)	.
.	.	4e	nen	4cc	nen
!!LO:LB:g=original
=5	=5	=5	=5	=5	=5
*M4/4	*	*M4/4	*	*M4/4	*
1r	.	(4.a	Magd	(4cc	Magd
.	.	.	.	2b)	.
.	.	8bL	.	.	.
.	.	8a	.	.	.
.	.	8gJ	.	.	.
.	.	[4e	.	(8aL	Ma-
.	.	.	.	8gJ)	.
=6	=6	=6	=6	=6	=6
1r	.	8e])	.	(4a	ri-
.	.	8e	Ma-	.	.
.	.	4f	ri-	2cc)	.
*	*	*^	*	*	*
.	.	2g	2g	en	.	.
.	.	.	.	.	4dd	en
=7	=7	=7	=7	=7	=7	=7
*M3/2	*	*M3/2	*M3/2	*	*M3/2	*
1r	.	2g	2c	Sohn,	4cc,	Sohn,
.	.	.	.	.	4g	so
.	.	4r	4r	.	2a	weit
.	.	4d	4d	so	.	.
*	*	*v	*v	*	*	*
4r	.	[2e	weit	2b	die
4E	so	.	.	.	.
=8	=8	=8	=8	=8	=8
*M4/4	*	*M4/4	*	*M4/4	*
4.A	weit	4e]	.	(4.cc	lie-
.	.	4f	die	.	.
8G	die	.	.	8ddL	.
8A	lie-	4g	lie-	8cc	.
8B	be	.	.	8bJ)	.
([4c	Son-	4f	be	(8aL	be
.	.	.	.	8gJ)	.
=9	=9	=9	=9	=9	=9
8cL]	.	(4.e	Son-	(4a	Son-
8BJ	.	.	.	.	.
2A)	.	.	.	4.cc	.
.	.	8d)	.	.	.
.	.	4c	ne	.	.
.	.	.	.	4a)	.
4d	ne	([4d	leucht't	.	.
.	.	.	.	8g	ne
!!LO:LB:g=original
=10	=10	=10	=10	=10	=10
*M6/4	*	*M6/4	*	*M6/4	*
2.d	leucht't	8dL]	.	(8eL	leucht't
.	.	8eJ	.	8gJ	.
.	.	2f#),	.	4a),	.
.	.	.	.	4d	und
2r	.	4.e	und	4e	an
.	.	.	.	4e	al-
.	.	8d	an	.	.
4r	.	4c	al-	4a	ler
=11	=11	=11	=11	=11	=11
*M4/4	*	*M4/4	*	*M4/4	*
1r	.	4B	ler	(2a	Welt
.	.	4e	Welt	.	.
.	.	(4.e	En-	4cc	.
.	.	.	.	[4dd	.
.	.	8dL	.	.	.
=12	=12	=12	=12	=12	=12
2r	.	8e	.	8ddL]	.
.	.	8fJ	.	8ee	.
.	.	4.g	.	8dd	.
.	.	.	.	8ccJ	.
4c	und	.	.	4a)	.
.	.	8f	.	.	.
4B	an	[4e	.	([4g	En-
=13	=13	=13	=13	=13	=13
*M6/4	*	*M6/4	*	*M6/4	*
4A	al-	4e]	.	8gL]	.
.	.	.	.	8fJ	.
4G	ler	4e	.	4.e	.
4F	Welt	4d	.	.	.
.	.	.	.	8f	.
2E	En-	4c)	.	4g)	.
.	.	2d	de	2f	de
4D	de	.	.	.	.
=14	=14	=14	=14	=14	=14
1.A AA	reicht.	1.c# A	reicht.	1.e	reicht.
==	==	==	==	==	==
*-	*-	*-	*-	*-	*-
!!!YOR: Bärenreiter-Ausgabe 676
!!!YOY: 1933
!!!EFL: 7/52
!!!URL-github: https://github.com/LucasHofmann/distler/blob/main/Jahrkreis/Distler_Jahrkreis_07_Christum-wir-sollen-loben-schon.krn
!!!URL-pdf: https://imslp.eu/files/imglnks/euimg/7/7d/IMSLP834545-PMLP518834-5-jahrkreis-EA--original-paper-600dpi.pdf#page=16 First edition, Kassel: Bärenreiter, 1933. Plate BA 676.
!!!URL-imslp: https://imslp.org/wiki/Der_Jahrkreis,_Op.5_(Distler,_Hugo)#IMSLP834545
!!!URL-youtube: https://www.youtube.com/watch?v=fqYDxiF_neo Ensemble Singklang
!!!system-decoration: [(s1,s2,s3)]
!!!ENC: Lucas Hofmann
!!!END: 2023/10/18
!!!title: @{OPR@@DE}, Op. @{OPS}, Nr. @{ONM}. @{OTL@@DE}
